svg/300/sharp/move_group-fill.svg

<svg xmlns="http://www.w3.org/2000/svg" width="48" height="48" viewBox="0 -960 960 960"><path d="M220.771-230.771v-186.152h45.383v140.768h538.46V-749.23h-538.46v140.768h-45.383v-251.537h629.227v629.228H220.771ZM110.002-120.003v-616.918h45.384v571.535h571.535v45.383H110.002ZM493.846-354.77l-31.615-31.615 102.232-103.616H220.771v-45.383h343.692L462.231-639l31.615-31.615 157.922 157.922L493.846-354.77Z"/></svg>

<svg xmlns="http://www.w3.org/2000/svg" width="48" height="48" viewBox="0 -960 960 960"><path d="M220.77-230.77v-186.15h45.38v140.76h538.46v-473.07H266.15v140.77h-45.38V-860H850v629.23H220.77ZM110-120v-616.92h45.39v571.53h571.53V-120H110Zm383.85-234.77-31.62-31.61L564.46-490H220.77v-45.38h343.69L462.23-639l31.62-31.61 157.92 157.92-157.92 157.92Z"/></svg>
